X:1
T:Trentham, SM
T:Trentham, SM
T:Robert Jackson, 1888
T:Public Domain Courtesy of the Cyber Hymnal™
C:Robert Jackson, 1888
Z:Public Domain
Z:Courtesy of the Cyber Hymnal™
%%score ( 1 2 ) ( 3 4 )
L:1/8
M:3/4
K:F
V:1 treble 
V:2 treble 
V:3 bass 
V:4 bass 
V:1
 [FA]2 [FA]2 [FA]2 | [FB]4 F2 | [FA]6 | [Fc]2 [FB]2 [FA]2 | [FG]4 [FA]2 | [EG]6 | %6
 [FA]2 [FB]2 [Ed]2 | [Fc]4 A2 | [DA]4 [DG]2 | [DB]4 [DG]2 | (F2 E2) [CF]2 | [FA]4 [EG]2 | [CF]6 |] %13
V:2
 x6 | x4 F2 | x6 | x6 | x6 | x6 | x6 | x4 (FE) | x6 | x6 | C4 x2 | x6 | x6 |] %13
V:3
 [F,C]2 [F,F]2 [F,E]2 | [F,D]4 [F,_D]2 | [F,C]6 | [A,C]2 [G,C]2 [F,C]2 | [B,,D]4 [=B,,D]2 | %5
 [C,E]6 | [F,C]2 [F,D]2 [G,B,]2 | A,4 [F,C]2 | [B,,C]4 [B,,B,]2 | [G,,B,]4 [B,,B,]2 | %10
 (A,2 G,2) [C,A,]2 | [C,C]4 [C,B,]2 | [F,A,]6 |] %13
V:4
 x6 | x6 | x6 | x6 | x6 | x6 | x6 | A,4 x2 | x6 | x6 | C,4 x2 | x6 | x6 |] %13

